svg/color/cdt.svg

<?xml version="1.0" encoding="UTF-8" ?>
<!DOCTYPE svg PUBLIC "-//W3C//DTD SVG 1.1//EN" "http://www.w3.org/Graphics/SVG/1.1/DTD/svg11.dtd">
<svg width="250pt" height="250pt" viewBox="0 0 250 250" version="1.1" xmlns="http://www.w3.org/2000/svg">
<g id="#ffffffff">
<path fill="#ffffff" opacity="1.00" d=" M 0.00 0.00 L 250.00 0.00 L 250.00 250.00 L 0.00 250.00 L 0.00 0.00 M 160.19 60.20 C 151.91 65.81 145.77 73.82 139.89 81.77 C 126.99 100.95 116.64 121.66 106.34 142.31 C 104.10 146.93 106.84 152.00 106.29 156.84 C 103.20 153.48 102.13 148.92 100.02 144.98 C 97.05 139.35 94.43 133.51 90.87 128.22 C 84.76 118.95 75.50 111.07 64.37 108.92 C 53.66 107.20 42.39 109.24 33.08 114.85 C 37.29 118.81 40.51 123.61 43.64 128.42 C 50.28 137.64 55.20 147.98 59.56 158.43 C 64.09 170.17 70.24 181.77 79.98 190.01 C 86.95 196.39 96.83 198.51 106.03 198.24 C 114.71 197.93 122.56 193.56 129.12 188.15 C 131.51 186.54 130.28 183.40 130.54 181.01 C 130.09 174.31 133.89 168.04 139.00 163.98 C 141.59 161.83 145.05 161.36 147.99 159.87 C 149.35 158.86 149.99 157.20 150.79 155.76 C 156.52 143.72 162.73 131.90 168.89 120.07 C 172.72 111.67 176.57 103.25 181.28 95.29 C 188.73 79.79 199.96 65.86 214.51 56.53 C 214.48 56.12 214.40 55.31 214.37 54.90 C 209.58 54.00 204.92 52.57 200.15 51.58 C 186.41 48.58 171.51 51.89 160.19 60.20 M 146.60 163.91 C 141.43 165.73 136.72 169.78 134.84 175.01 C 133.34 180.52 133.80 186.93 137.53 191.49 C 141.92 197.43 150.40 199.97 157.28 197.15 C 164.40 194.88 169.11 187.32 168.68 179.98 C 168.83 175.33 166.12 171.18 163.02 167.95 C 158.85 163.65 152.26 162.61 146.60 163.91 Z" />
</g>
<g id="#39ee93ff">
<path fill="#39ee93" opacity="1.00" d=" M 160.19 60.20 C 171.51 51.89 186.41 48.58 200.15 51.58 C 204.92 52.57 209.58 54.00 214.37 54.90 C 214.40 55.31 214.48 56.12 214.51 56.53 C 199.96 65.86 188.73 79.79 181.28 95.29 C 176.57 103.25 172.72 111.67 168.89 120.07 C 162.73 131.90 156.52 143.72 150.79 155.76 C 149.99 157.20 149.35 158.86 147.99 159.87 C 145.05 161.36 141.59 161.83 139.00 163.98 C 133.89 168.04 130.09 174.31 130.54 181.01 C 130.28 183.40 131.51 186.54 129.12 188.15 C 122.56 193.56 114.71 197.93 106.03 198.24 C 96.83 198.51 86.95 196.39 79.98 190.01 C 70.24 181.77 64.09 170.17 59.56 158.43 C 55.20 147.98 50.28 137.64 43.64 128.42 C 40.51 123.61 37.29 118.81 33.08 114.85 C 42.39 109.24 53.66 107.20 64.37 108.92 C 75.50 111.07 84.76 118.95 90.87 128.22 C 94.43 133.51 97.05 139.35 100.02 144.98 C 102.13 148.92 103.20 153.48 106.29 156.84 C 106.84 152.00 104.10 146.93 106.34 142.31 C 116.64 121.66 126.99 100.95 139.89 81.77 C 145.77 73.82 151.91 65.81 160.19 60.20 Z" />
<path fill="#39ee93" opacity="1.00" d=" M 146.60 163.91 C 152.26 162.61 158.85 163.65 163.02 167.95 C 166.12 171.18 168.83 175.33 168.68 179.98 C 169.11 187.32 164.40 194.88 157.28 197.15 C 150.40 199.97 141.92 197.43 137.53 191.49 C 133.80 186.93 133.34 180.52 134.84 175.01 C 136.72 169.78 141.43 165.73 146.60 163.91 Z" />
</g>
</svg>

<?xml version="1.0" encoding="utf-8"?>
<!-- Generator: Adobe Illustrator 26.0.3, SVG Export Plug-In . SVG Version: 6.00 Build 0)  -->
<svg version="1.1" id="Layer_1" xmlns="http://www.w3.org/2000/svg" xmlns:xlink="http://www.w3.org/1999/xlink" x="0px" y="0px"
	 viewBox="0 0 250 250" style="enable-background:new 0 0 250 250;" xml:space="preserve">
<style type="text/css">
	.st0{fill:#FFFFFF;}
	.st1{fill:#39EE93;}
</style>
<circle class="st0" cx="125" cy="125.5" r="125"/>
<g id="_x23_39ee93ff">
	<path class="st1" d="M160.2,60.2c11.3-8.3,26.2-11.6,40-8.6c4.8,1,9.4,2.4,14.2,3.3c0,0.4,0.1,1.2,0.1,1.6
		c-14.5,9.3-25.8,23.3-33.2,38.8c-4.7,8-8.6,16.4-12.4,24.8c-6.2,11.8-12.4,23.7-18.1,35.7c-0.8,1.4-1.4,3.1-2.8,4.1
		c-2.9,1.5-6.4,2-9,4.1c-5.1,4.1-8.9,10.3-8.5,17c-0.3,2.4,1,5.5-1.4,7.1c-6.6,5.4-14.4,9.8-23.1,10.1c-9.2,0.3-19.1-1.9-26-8.2
		c-9.7-8.2-15.9-19.8-20.4-31.6c-4.4-10.4-9.3-20.8-15.9-30c-3.1-4.8-6.3-9.6-10.6-13.6c9.3-5.6,20.6-7.7,31.3-5.9
		c11.1,2.2,20.4,10,26.5,19.3c3.6,5.3,6.2,11.1,9.1,16.8c2.1,3.9,3.2,8.5,6.3,11.9c0.5-4.8-2.2-9.9,0-14.5
		c10.3-20.6,20.7-41.4,33.6-60.5C145.8,73.8,151.9,65.8,160.2,60.2z"/>
	<path class="st1" d="M146.6,163.9c5.7-1.3,12.2-0.3,16.4,4c3.1,3.2,5.8,7.4,5.7,12c0.4,7.3-4.3,14.9-11.4,17.2
		c-6.9,2.8-15.4,0.3-19.8-5.7c-3.7-4.6-4.2-11-2.7-16.5C136.7,169.8,141.4,165.7,146.6,163.9z"/>
</g>
</svg>
